X:314
T:Prinsens Långdans
R:Långdans
Z:Transkription gjord av Jonas Brunskog, 24/6 2008
O:Mönsterås, Döderhultsvik, Småland
S:efter Sven Lorenz Bruun
N:Folkmusikkommissionens notsamling, Bild: [[http://www.smus.se/earkiv/fmk/browselarge.php?lang=sw&katalogid=M+188&bildnr=00053|53]] Volym: M 188 Datering: -1837. Nummer 5
M:2/4
L:1/16
K:F
|:c2(cB) c2f2|(eg)(ec) (fa)(fd)|c2(cB) c2f2|(eg)(ec) [fA]4:|
|:(egec) (fafc)|(gbgc) (fafc)|(egec) (fafc)|(gbgc) [fA]4:|
(:musicend:)

(:music:)
